actions/22/draw-freehand.svg

<?xml version="1.0" encoding="UTF-8" standalone="no"?>
<!-- Created with Inkscape (http://www.inkscape.org/) -->

<svg
   xmlns:dc="http://purl.org/dc/elements/1.1/"
   xmlns:cc="http://creativecommons.org/ns#"
   xmlns:rdf="http://www.w3.org/1999/02/22-rdf-syntax-ns#"
   xmlns:svg="http://www.w3.org/2000/svg"
   xmlns="http://www.w3.org/2000/svg"
   xmlns:sodipodi="http://sodipodi.sourceforge.net/DTD/sodipodi-0.dtd"
   xmlns:inkscape="http://www.inkscape.org/namespaces/inkscape"
   version="1.0"
   width="22"
   height="22"
   id="svg2"
   inkscape:version="0.48.3.1 r9886"
   sodipodi:docname="draw-freehand.svg">
  <sodipodi:namedview
     pagecolor="#ffffff"
     bordercolor="#666666"
     borderopacity="1"
     objecttolerance="10"
     gridtolerance="10"
     guidetolerance="10"
     inkscape:pageopacity="0"
     inkscape:pageshadow="2"
     inkscape:window-width="1920"
     inkscape:window-height="1023"
     id="namedview32"
     showgrid="true"
     inkscape:zoom="16.000001"
     inkscape:cx="18.188948"
     inkscape:cy="8.4956439"
     inkscape:window-x="-10"
     inkscape:window-y="35"
     inkscape:window-maximized="1"
     inkscape:current-layer="svg2"
     inkscape:snap-bbox="true"
     inkscape:bbox-paths="true"
     inkscape:bbox-nodes="true"
     inkscape:snap-bbox-edge-midpoints="true"
     inkscape:snap-bbox-midpoints="true"
     inkscape:object-paths="true"
     inkscape:snap-intersection-paths="true"
     inkscape:object-nodes="true"
     inkscape:snap-smooth-nodes="true"
     inkscape:snap-midpoints="true"
     inkscape:snap-object-midpoints="true"
     inkscape:snap-center="true"
     fit-margin-top="0"
     fit-margin-left="0"
     fit-margin-right="0"
     fit-margin-bottom="0"
     inkscape:snap-global="false">
    <inkscape:grid
       type="xygrid"
       id="grid3218"
       empspacing="5"
       visible="true"
       enabled="true"
       snapvisiblegridlinesonly="true"
       originx="-11px"
       originy="18px" />
  </sodipodi:namedview>
  <metadata
     id="metadata11">
    <rdf:RDF>
      <cc:Work
         rdf:about="">
        <dc:format>image/svg+xml</dc:format>
        <dc:type
           rdf:resource="http://purl.org/dc/dcmitype/StillImage" />
        <dc:title />
      </cc:Work>
    </rdf:RDF>
  </metadata>
  <defs
     id="defs4" />
  <path
     inkscape:connector-curvature="0"
     id="path3034"
     d="M 3.625,2.53125 2.09375,3.8125 c 1.1201297,1.3583654 2.5225045,2.0533116 3.9375,2.3125 1.4149955,0.2591884 2.8405371,0.1281411 4.125,-0.0625 1.284463,-0.1906411 2.46923,-0.452044 3.34375,-0.5 0.87452,-0.047956 1.250963,0.078024 1.46875,0.34375 0.107352,0.1309816 0.102912,0.1200639 0.09375,0.1875 -0.0092,0.067436 -0.08824,0.2559407 -0.28125,0.5 -0.386022,0.4881187 -1.202883,1.1353363 -2.09375,1.75 -0.890867,0.614664 -1.846601,1.226382 -2.59375,1.8125 -0.3735746,0.293059 -0.7031075,0.560731 -0.96875,0.9375 -0.1328212,0.188385 -0.2540337,0.394025 -0.3125,0.6875 -0.058466,0.293475 -0.00602,0.674775 0.15625,0.96875 0.2338436,0.423636 0.6248758,0.71154 1,0.84375 0.375124,0.13221 0.759737,0.153592 1.125,0.15625 0.730526,0.0053 1.491928,-0.106216 2.25,-0.21875 0.758072,-0.112534 1.496485,-0.222024 2.0625,-0.21875 0.377344,0.0022 0.476186,0.06874 0.625,0.125 -0.206262,0.204947 -0.483351,0.381931 -0.75,0.875 -0.17452,0.322711 -0.302281,0.781585 -0.25,1.25 0.05228,0.468415 0.2969,0.914205 0.625,1.3125 0.656199,0.796591 1.741225,1.518418 3.625,2.4375 l 0.875,-1.8125 c -1.764394,-0.860837 -2.66453,-1.536943 -2.96875,-1.90625 -0.15211,-0.184654 -0.155766,-0.245661 -0.15625,-0.25 -4.84e-4,-0.0043 -0.0059,0.0062 0.03125,-0.0625 0.07433,-0.137446 0.389054,-0.422505 0.75,-0.875 0.180473,-0.226247 0.397265,-0.554475 0.4375,-1.03125 0.04023,-0.476775 -0.212767,-0.967693 -0.53125,-1.28125 -0.662391,-0.652147 -1.516407,-0.776645 -2.3125,-0.78125 -0.796093,-0.0046 -1.611939,0.105476 -2.375,0.21875 -0.664468,0.09864 -1.227632,0.168376 -1.6875,0.1875 C 11.947599,11.245047 12.873714,10.647726 13.8125,10 14.751286,9.352274 15.686527,8.674797 16.34375,7.84375 16.672361,7.4282266 16.95259,6.9540044 17.03125,6.375 17.10991,5.7959956 16.92801,5.1403424 16.53125,4.65625 15.740814,3.6918278 14.50131,3.5319866 13.375,3.59375 12.24869,3.6555134 11.046388,3.9152534 9.84375,4.09375 8.6411122,4.2722466 7.4582879,4.3489546 6.40625,4.15625 5.3542121,3.9635454 4.4454988,3.5262573 3.625,2.53125 z"
     style="font-size:medium;font-style:normal;font-variant:normal;font-weight:normal;font-stretch:normal;text-indent:0;text-align:start;text-decoration:none;line-height:normal;letter-spacing:normal;word-spacing:normal;text-transform:none;direction:ltr;block-progression:tb;writing-mode:lr-tb;text-anchor:start;baseline-shift:baseline;color:#000000;fill:#27303a;fill-opacity:0.753280819999999968;fill-rule:nonzero;stroke:none;stroke-width:2;marker:none;visibility:visible;display:inline;overflow:visible;enable-background:accumulate;font-family:Sans;-inkscape-font-specification:Sans" />
  <path
     style="font-size:medium;font-style:normal;font-variant:normal;font-weight:normal;font-stretch:normal;text-indent:0;text-align:start;text-decoration:none;line-height:normal;letter-spacing:normal;word-spacing:normal;text-transform:none;direction:ltr;block-progression:tb;writing-mode:lr-tb;text-anchor:start;baseline-shift:baseline;color:#000000;fill:#f1f3f5;fill-opacity:0.90288714000000003;fill-rule:nonzero;stroke:none;stroke-width:2;marker:none;visibility:visible;display:inline;overflow:visible;enable-background:accumulate;font-family:Sans;-inkscape-font-specification:Sans"
     d="m 1.34375,2.875 -0.03125,0.03125 -0.90625,0.75 0.75,0.90625 C 2.4613415,6.1451659 4.1617937,7.0101358 5.8125,7.3125 7.4385078,7.6103401 9.0107419,7.4478462 10.34375,7.25 11.251985,7.1151989 11.863982,7.0067386 12.53125,6.90625 12.308355,7.0781387 12.24582,7.1741438 12,7.34375 c -0.86698,0.5981828 -1.837117,1.232413 -2.65625,1.875 -0.3831313,0.300556 -0.8067793,0.647512 -1.1875,1.1875 -0.1716808,0.243501 -0.4316768,0.625186 -0.53125,1.125 0.00864,1.650465 0.322862,2.238492 1.9375,3.1875 0.579392,0.204203 1.125289,0.215796 1.53125,0.21875 0.858687,0.0062 1.677883,-0.105987 2.4375,-0.21875 0.202312,-0.03003 0.308759,-0.03642 0.5,-0.0625 -0.08243,0.342993 -0.233052,0.623124 -0.1875,1.03125 0.08874,0.7951 0.453622,1.425971 0.875,1.9375 0.842753,1.023058 2.088145,1.833221 4.03125,2.78125 l 1.09375,0.5 L 20.375,19.84375 19.28125,19.3125 19.25,19.28125 c -1.858451,-0.909522 -2.942344,-1.615478 -3.59375,-2.40625 -0.3281,-0.398295 -0.57272,-0.844085 -0.625,-1.3125 -0.05228,-0.468415 0.07548,-0.927289 0.25,-1.25 0.266649,-0.493069 0.543738,-0.670053 0.75,-0.875 -0.148814,-0.05626 -0.247656,-0.1228 -0.625,-0.125 -0.566015,-0.0033 -1.304428,0.106216 -2.0625,0.21875 -0.758072,0.112534 -1.519474,0.22405 -2.25,0.21875 -0.365263,-0.0027 -0.749876,-0.02404 -1.125,-0.15625 -0.3751242,-0.13221 -0.7661564,-0.420114 -1,-0.84375 -0.16227,-0.293975 -0.214716,-0.675275 -0.15625,-0.96875 0.058466,-0.293475 0.1796788,-0.499115 0.3125,-0.6875 0.2656425,-0.376769 0.5951754,-0.644441 0.96875,-0.9375 0.747149,-0.586118 1.702883,-1.197836 2.59375,-1.8125 0.890867,-0.6146637 1.707728,-1.2618813 2.09375,-1.75 0.19301,-0.2440593 0.27205,-0.432564 0.28125,-0.5 C 15.0717,6.026314 15.0761,6.037232 14.96875,5.90625 14.750963,5.640524 14.37452,5.514544 13.5,5.5625 12.62548,5.610456 11.440713,5.8718589 10.15625,6.0625 8.8717871,6.2531411 7.4462455,6.3841884 6.03125,6.125 4.6162545,5.8658116 3.2138797,5.1708654 2.09375,3.8125 L 2.125,3.78125 l -0.03125,0 z"
     id="path3000"
     inkscape:connector-curvature="0"
     sodipodi:nodetypes="ccccsscssscccccsscccccsssccscssssssscsssscccc" />
</svg>

<?xml version="1.0" encoding="UTF-8"?>
<!-- Created with Inkscape (http://www.inkscape.org/) -->
<svg width="22" height="22" version="1.0" xmlns="http://www.w3.org/2000/svg" xmlns:cc="http://creativecommons.org/ns#" xmlns:dc="http://purl.org/dc/elements/1.1/" xmlns:rdf="http://www.w3.org/1999/02/22-rdf-syntax-ns#">
	<metadata>
		<rdf:RDF>
			<cc:Work rdf:about="">
				<dc:format>image/svg+xml</dc:format>
				<dc:type rdf:resource="http://purl.org/dc/dcmitype/StillImage"/>
				<dc:title/>
			</cc:Work>
		</rdf:RDF>
	</metadata>
	<defs>
		<radialGradient id="a" cx="326.51" cy="-95.167" r="7.254" gradientTransform="matrix(2.3429 0 0 2.2674 -746.88 233.57)" gradientUnits="userSpaceOnUse">
			<stop stop-color="#213851" stop-opacity=".9059" offset="0"/>
			<stop stop-color="#27303a" stop-opacity="0" offset="1"/>
		</radialGradient>
		<radialGradient id="b" cx="11.505" cy="13.002" r="9.75" gradientTransform="matrix(1.9102 0 0 1.9102 -11.79 -12.213)" gradientUnits="userSpaceOnUse">
			<stop stop-color="#ffffff" stop-opacity=".74858" offset="0"/>
			<stop stop-color="#ffffff" stop-opacity=".60511" offset="1"/>
		</radialGradient>
	</defs>
	<path d="m3.625 2.5312-1.5312 1.2812c1.1201 1.3584 2.5225 2.0533 3.9375 2.3125s2.8405 0.12814 4.125-0.0625c1.2845-0.19064 2.4692-0.45204 3.3438-0.5s1.251 0.078024 1.4688 0.34375c0.10735 0.13098 0.10291 0.12006 0.09375 0.1875-0.0092 0.067436-0.08824 0.25594-0.28125 0.5-0.38602 0.48812-1.2029 1.1353-2.0938 1.75-0.89087 0.61466-1.8466 1.2264-2.5938 1.8125-0.37357 0.29306-0.70311 0.56073-0.96875 0.9375-0.13282 0.18838-0.25403 0.39402-0.3125 0.6875-0.058466 0.29348-0.00602 0.67478 0.15625 0.96875 0.23384 0.42364 0.62488 0.71154 1 0.84375 0.37512 0.13221 0.75974 0.15359 1.125 0.15625 0.73053 0.0053 1.4919-0.10622 2.25-0.21875s1.4965-0.22202 2.0625-0.21875c0.37734 0.0022 0.47619 0.06874 0.625 0.125-0.20626 0.20495-0.48335 0.38193-0.75 0.875-0.17452 0.32271-0.30228 0.78158-0.25 1.25 0.05228 0.46842 0.2969 0.9142 0.625 1.3125 0.6562 0.79659 1.7412 1.5184 3.625 2.4375l0.875-1.8125c-1.7644-0.86084-2.6645-1.5369-2.9688-1.9062-0.15211-0.18465-0.15577-0.24566-0.15625-0.25-4.84e-4 -0.0043-0.0059 0.0062 0.03125-0.0625 0.07433-0.13745 0.38905-0.4225 0.75-0.875 0.18047-0.22625 0.39726-0.55448 0.4375-1.0312 0.04023-0.47678-0.21277-0.96769-0.53125-1.2812-0.66239-0.65215-1.5164-0.77664-2.3125-0.78125-0.79609-0.0046-1.6119 0.10548-2.375 0.21875-0.66447 0.09864-1.2276 0.16838-1.6875 0.1875 0.60385-0.4737 1.53-1.071 2.4688-1.7188s1.874-1.3252 2.5312-2.1562c0.32861-0.41552 0.60884-0.88975 0.6875-1.4688s-0.10324-1.2347-0.5-1.7188c-0.79044-0.96442-2.0299-1.1243-3.1562-1.0625s-2.3286 0.3215-3.5312 0.5c-1.2026 0.1785-2.3855 0.2552-3.4375 0.0625s-1.9608-0.62999-2.7812-1.625z" color="#000000" fill="#090d11" fill-opacity=".76621" style="paint-order:normal;text-decoration-line:none;text-indent:0;text-transform:none"/>
	<path d="m3.625 2.5312-1.5312 1.2812c1.1201 1.3584 2.5225 2.0533 3.9375 2.3125s2.8405 0.12814 4.125-0.0625c1.2845-0.19064 2.4692-0.45204 3.3438-0.5s1.251 0.078024 1.4688 0.34375c0.10735 0.13098 0.10291 0.12006 0.09375 0.1875-0.0092 0.067436-0.08824 0.25594-0.28125 0.5-0.38602 0.48812-1.2029 1.1353-2.0938 1.75-0.89087 0.61466-1.8466 1.2264-2.5938 1.8125-0.37357 0.29306-0.70311 0.56073-0.96875 0.9375-0.13282 0.18838-0.25403 0.39402-0.3125 0.6875-0.058466 0.29348-0.00602 0.67478 0.15625 0.96875 0.23384 0.42364 0.62488 0.71154 1 0.84375 0.37512 0.13221 0.75974 0.15359 1.125 0.15625 0.73053 0.0053 1.4919-0.10622 2.25-0.21875s1.4965-0.22202 2.0625-0.21875c0.37734 0.0022 0.47619 0.06874 0.625 0.125-0.20626 0.20495-0.48335 0.38193-0.75 0.875-0.17452 0.32271-0.30228 0.78158-0.25 1.25 0.05228 0.46842 0.2969 0.9142 0.625 1.3125 0.6562 0.79659 1.7412 1.5184 3.625 2.4375l0.875-1.8125c-1.7644-0.86084-2.6645-1.5369-2.9688-1.9062-0.15211-0.18465-0.15577-0.24566-0.15625-0.25-4.84e-4 -0.0043-0.0059 0.0062 0.03125-0.0625 0.07433-0.13745 0.38905-0.4225 0.75-0.875 0.18047-0.22625 0.39726-0.55448 0.4375-1.0312 0.04023-0.47678-0.21277-0.96769-0.53125-1.2812-0.66239-0.65215-1.5164-0.77664-2.3125-0.78125-0.79609-0.0046-1.6119 0.10548-2.375 0.21875-0.66447 0.09864-1.2276 0.16838-1.6875 0.1875 0.60385-0.4737 1.53-1.071 2.4688-1.7188s1.874-1.3252 2.5312-2.1562c0.32861-0.41552 0.60884-0.88975 0.6875-1.4688s-0.10324-1.2347-0.5-1.7188c-0.79044-0.96442-2.0299-1.1243-3.1562-1.0625s-2.3286 0.3215-3.5312 0.5c-1.2026 0.1785-2.3855 0.2552-3.4375 0.0625s-1.9608-0.62999-2.7812-1.625z" color="#000000" fill="url(#a)" style="block-progression:tb;font-variant-east_asian:normal;paint-order:normal;text-indent:0;text-transform:none"/>
	<path d="m1.3438 2.875-0.03125 0.03125-0.90625 0.75 0.75 0.90625c1.3051 1.5827 3.0055 2.4476 4.6562 2.75 1.626 0.29784 3.1982 0.13535 4.5312-0.0625 0.90824-0.1348 1.5202-0.24326 2.1875-0.34375-0.2229 0.17189-0.28543 0.26789-0.53125 0.4375-0.86698 0.59818-1.8371 1.2324-2.6562 1.875-0.38313 0.30056-0.80678 0.64751-1.1875 1.1875-0.17168 0.2435-0.43168 0.62519-0.53125 1.125 0.00864 1.6505 0.32286 2.2385 1.9375 3.1875 0.57939 0.2042 1.1253 0.2158 1.5312 0.21875 0.85869 0.0062 1.6779-0.10599 2.4375-0.21875 0.20231-0.03003 0.30876-0.03642 0.5-0.0625-0.08243 0.34299-0.23305 0.62312-0.1875 1.0312 0.08874 0.7951 0.45362 1.426 0.875 1.9375 0.84275 1.0231 2.0881 1.8332 4.0312 2.7812l1.0938 0.5 0.53125-1.0625-1.0938-0.53125-0.03125-0.03125c-1.8585-0.90952-2.9423-1.6155-3.5938-2.4062-0.3281-0.3983-0.57272-0.84408-0.625-1.3125s0.07548-0.92729 0.25-1.25c0.26665-0.49307 0.54374-0.67005 0.75-0.875-0.14881-0.05626-0.24766-0.1228-0.625-0.125-0.56602-0.0033-1.3044 0.10622-2.0625 0.21875s-1.5195 0.22405-2.25 0.21875c-0.36526-0.0027-0.74988-0.02404-1.125-0.15625-0.37512-0.13221-0.76616-0.42011-1-0.84375-0.16227-0.29398-0.21472-0.67528-0.15625-0.96875s0.17968-0.49912 0.3125-0.6875c0.26564-0.37677 0.59518-0.64444 0.96875-0.9375 0.74715-0.58612 1.7029-1.1978 2.5938-1.8125 0.89087-0.61466 1.7077-1.2619 2.0938-1.75 0.19301-0.24406 0.27205-0.43256 0.28125-0.5s0.0136-0.056518-0.09375-0.1875c-0.21779-0.26573-0.59423-0.39171-1.4688-0.34375s-2.0593 0.30936-3.3438 0.5c-1.2845 0.19064-2.71 0.32169-4.125 0.0625s-2.8174-0.95413-3.9375-2.3125l0.03125-0.03125h-0.03125z" color="#000000" fill="url(#b)" fill-opacity=".99858" style="block-progression:tb;font-variant-east_asian:normal;paint-order:normal;text-indent:0;text-transform:none"/>
</svg>
